!!!COM: Scarlatti, Domenico
!!!CDT: 1685-1757
!!!OTL: Sonata in C major, L.307, K.269
!!!SCT: K. 269
!!!SCT: L. 307
!!!OMD: Allegro ([quarter-dot]=104)
**kern	**kern	**dynam
*staff2	*staff1	*staff1/2
*Icemba	*Icemba	*
*I"L.307 (K.269)	*I"L.307 (K.269)	*
*>[A,A,B,B]	*>[A,A,B,B]	*>[A,A,B,B]
*>norep[A,B]	*>norep[A,B]	*>norep[A,B]
*>A	*>A	*>A
*clefF4	*clefG2	*
*k[f#c#g#]	*k[f#c#g#]	*
*A:	*A:	*
*M6/8	*M6/8	*
*MM156	*MM156	*
=1-	=1-	=1-
.	(16ddqq	.
(8AL	4.cc#)	p
8B	.	.
8c#J	.	.
.	(16cc#qq	.
8dL	[4.b)	.
8e	.	.
8f#J)	.	.
=2	=2	=2
(4.G#	8bL]	.
.	(8ff#	.
.	8eeJ	<
4.E	8ddL	.
.	8cc#	.
.	8bJ	[
=3	=3	=3
4.A)	8cc#L	mf
.	8aa	.
.	[8eeJ	.
(<4.C#	8eeL]	.
.	8ddM	.
.	8cc#J	.
=4	=4	=4
4.D	8ddL	.
.	8ff#	.
.	[8ddJ)	.
4.E	8ddL]	.
.	8a (8cc#	.
.	8g# 8bJ	.
!!LO:LB:g=z
=5	=5	=5
4.AA	8a+ 8cc#L)	.
.	(8aa	p
.	[8eeJ	.
4.C#	8eeL]	.
.	8ddM	.
.	8cc#J	.
=6	=6	=6
4.D	8bL	.
.	8ff#	.
.	[8ddJ)	.
4.E	8ddL]	.
.	8a (8cc#	.
.	8g# 8bJ)	.
=7	=7	=7
.	((16bqq 16gqq	.
4.AA)	4.a\))	.
.	(16cc#qLL	.
.	16ddqJJ	.
(8AL	([4.ee)	mf
8c#	.	.
8eJ)	.	.
=8	=8	=8
4.EE	8eeL]	.
.	8dd	.
.	8bJ	.
(8AL	8aLM<	.
8c#	8g#	.
8eJ)	8aJ)	.
=9	=9	=9
.	(16aqq	.
4.EE	4.b)	.
.	(16cc#qLL	.
.	16ddqJJ	.
(8AL	([4.ee)	p
8c#	.	.
8eJ)	.	.
!!LO:LB:g=z
=10	=10	=10
4.EE	8eeL]	.
.	8bb	.
.	8ddJ	.
(8AL	8cc#Lm	.
8c#	8b	.
8eJ)	8aJ)	.
=11	=11	=11
.	(16aqq	.
4.EE	4.b)	.
*ped	*	*
8E'L	([4.gg#	f
(8e	.	.
8g#J)	.	.
=12	=12	=12
*ped	*	*
8D#'L	8gg#L]	.
(8d#	8ff#	.
8f#J)	[8dd#J	.
*ped	*	*
8C#'L	8dd#L]	.
(8c#	8ee	.
8eJ)	[8cc#J	.
=13	=13	=13
*ped	*	*
8BB'L	8cc#L]	>
(8B	8dd#	.
8d#J)	[8bJ	.
*ped	*	*
8AA'L	8bL]	.
(8A	8cc#	.
8c#J)	[8aJ	.
=14	=14	=14
*ped	*	*
8GG#'L	8aL]	.
(8G#	8b	.
8BJ)	[8g#J	.
*ped	*	*
8FF#'L	8g#L]	.
(8F#	8a	.
8AJ)	8f#J	.
!!LO:LB:g=z
=15	=15	=15
*Xped	*	*
(<4.EE	8g#L	p
.	8e	<
.	8g#J	.
4.E	8bL	.
.	8ee	.
.	8bJ	[[
=16	=16	=16
4.AA	8cc#L)	mf
.	8aa (8ccc#	.
.	8gg# 8bbJ	.
4.A)	8ff# 8aaL	.
.	8ee 8gg#	.
.	8dd# 8ff#J)	.
=17	=17	=17
4.BB 4.E 4.G# 4.B	(8g#L	p
.	8b	.
.	8eeJ	.
4.BB 4.F#	8f#L<	.
.	8a	.
.	8dd#J)	.
=18	=18	=18
.	(16dd#qq	.
4.EE 4.E	4.ee)	.
(<4.e 4.gn	(8bL	<
.	8ggn	.
.	8ff#J	.
=19	=19	=19
4.cn 4.e)	8aaL	.
.	8dd#	.
.	8eeJ	.
4.c 4.e 4.a	8cccnL	.
.	8dd#	.
.	8eeJ	.
!!LO:LB:g=z
=20	=20	=20
4.BB 4.B	8aa#L	f >
.	8bb	.
.	8ff#J)	.
(<4.e 4.gn	(8bL	] p
.	8ggn	<
.	8ff#J	.
=21	=21	=21
4.cn 4.e)	8aaL	.
.	8dd#	.
.	8eeJ	.
4.c 4.e 4.a	8cccnL	.
.	8dd#	.
.	8eeJ	.
=22	=22	=22
4.BB 4.B	8aa#L	f >
.	8bb	.
.	8ff#J)	.
*ped	*	*
8E'L	([4.gg#	] p
(8e	.	.
8g#J)	.	.
=23	=23	=23
*ped	*	*
8D#'L	8gg#L]	.
(8d	8ff#	.
8f#J)	[8dd#J	.
*ped	*	*
8C#'L	8dd#L]	.
(8c#	8ee	.
8eJ)	[8cc#J	.
=24	=24	=24
*ped	*	*
8BB'L	8cc#L]	<
(8d#	8ff#	.
8f#J)	[8dd#J	.
*ped	*	*
8AA'L	8dd#L]	.
(8d#	8ff#	.
8f#J)	[8dd#J	.
!!LO:LB:g=z
=25	=25	=25
*ped	*	*
8GG#'L	8dd#XL]	.
(8e	8gg#	.
8g#J)	[8eeJ	.
*ped	*	*
8FF#'L	8eeL]	.
(8f#	8aa	.
8aJ)	[8ff#J	.
=26	=26	=26
*Xped	*	*
(4.EE	8ff#L]	f
.	8bb	.
.	8gg#J	.
4.E	8eeL	.
.	8b	.
.	8dd#J	.
=27	=27	=27
4.AA	8cc#L)	.
.	(8aa 8ccc#	.
.	8gg# 8bbJ	.
4.A	8ff# 8aaL	.
.	8ee 8gg#	.
.	8dd# 8ff#J)	.
=28	=28	=28
4.B	(8g#L	p
.	8b	.
.	8eeJ	.
4.BB)	8f#L<	.
.	8a	.
.	8dd#J)	.
=29	=29	=29
.	(16dd#qq	.
(<8EEL	4.ee)	.
8GG#	.	.
8BBJ	.	.
8E'L)	([4.gg#	p
(8e	.	.
8g#J)	.	.
!!LO:LB:g=z
=30	=30	=30
*ped	*	*
8D#'L	8gg#L]	.
(8d#	8ff#	.
8f#J)	[8dd#J	.
*ped	*	*
8C#'L	8dd#L]	.
(8c#	8ee	.
8eJ)	[8cc#J	.
=31	=31	=31
*ped	*	*
8BB'L	8cc#L]	<
(8d#	8ff#	.
8f#J)	[8dd#J	.
*ped	*	*
8AA'L	8dd#L]	.
(8d#	8ff#	.
8f#J)	(8dd#J	.
=32	=32	=32
*ped	*	*
8GG#'L	8dd#L)	.
(8e	8gg#	.
8g#J)	[8eeJ	.
*ped	*	*
8FF#'L	8eeL]	.
(8f#	8aa	.
8aJ)	[8ff#J	.
=33	=33	=33
*Xped	*	*
(<4.EE	8ff#L]	f
.	8bb	.
.	8gg#J	.
4.E	8eeL	.
.	8b	.
.	8dd#J	.
=34	=34	=34
4.AA	8cc#L)	.
.	(8aa 8ccc#	.
.	8gg# 8bbJ	.
4.A	8ff# 8aaL	.
.	8ee 8gg#	.
.	8dd# 8ff#J)	.
!!LO:LB:g=z
=35	=35	=35
4.B	(8g#L>	p
.	8b	.
.	8eeJ	.
4.BB	8f#L	.
.	8a	.
.	8dd#J	.
=36	=36	=36
4.EE)	8eeL)	<
.	(8bb	.
.	8gg#J	.
(<4.E	8eeL	.
.	8b	.
.	[8b#J	.
=37	=37	=37
4.AA	8b#XL]	.
.	8cc#	.
.	[8dd#J	.
4.A	8dd#L]	.
.	8ee	.
.	8aJ	.
=38	=38	=38
4.B	8g#L	.
.	8b	.
.	8eJ	.
4.BB)	8f#LM<	.
.	8e	.
.	8d#J)	.
=39	=39	=39
.	(16d#qq	.
4.EE 4.E	4.e)	f
4r	4r	.
8r	8r	.
!!LO:LB:g=z
=40:|!|:	=40:|!|:	=40:|!|:
*>B	*>B	*>B
*k[]	*k[]	*k[]
*^	*	*
(8EL	4E	2.r	f
8eJ)	.	.	.
8ryy	8D' 8d'	.	.
4.ryy	8C' 8c'L	.	.
.	8BB' 8B'	.	.
.	8AA' 8A'J	.	.
*v	*v	*	*
=41	=41	=41
8GG' 8G'L	2.r	.
8FF' 8F'	.	.
8EE' 8E'J	.	.
8FF' 8F'L	.	.
8CC' 8C'	.	.
8DD' 8D'J	.	.
=42	=42	=42
4.EE^ 4.E^	8r	.
.	(8eeL	mf
.	8bJ	.
(4.E 4.A 4.c	8ccL	.
.	8a	.
.	8d#J	.
=43	=43	=43
4.E 4.B)	8e' 8g#' 8b')	.
.	(8eeL	.
.	8bJ	.
(4.E 4.A 4.c	8ccL	.
.	8a	.
.	8d#J	.
=44	=44	=44
4.E 4.B)	8e' 8g#' 8b')	.
.	(8eeL	.
.	8ddJ	.
(<4.E 4.Gn 4.e	8cc#L	.
.	8dd	.
.	8eeJ	.
!!LO:LB:g=z
=45	=45	=45
4.F 4.A 4.d)	8ddL	.
.	8aa	.
.	8ddJ	.
(<4.E 4.G 4.e	8cc#L	.
.	8dd	.
.	8eeJ	.
=46	=46	=46
8F 8A 8dL)	8dd)	.
8A' 8a'	8r	f
8G' 8g'J	8r	.
8F' 8f'L	4r	.
8E' 8e'	.	.
8D' 8d'J	8r	.
=47	=47	=47
8C' 8c'L	2.r	.
8BB-' 8B-'	.	.
8AA' 8A'J	.	.
8BB-' 8B-'L	.	.
8FF' 8F'	.	.
8GG' 8G'J	.	.
=48	=48	=48
4.AA^/ 4.A^/	8r	.
.	(8aaL	mf
.	8eeJ	.
(4.A 4.d 4.f	8ffL	.
.	8dd	.
.	8g#J	.
=49	=49	=49
4.A 4.e)	8a' 8cc#' 8ee'L)	.
.	(8aa	.
.	8eeJ	.
(4.A 4.d 4.f	8ffL	.
.	8dd	.
.	8g#J	.
!!LO:LB:g=z
=50	=50	=50
4.A 4.e)	8a' 8cc#' 8ee'L)	.
.	(8aa	.
.	8ggJ	.
(<4.A 4.cn 4.a	8ff#L	.
.	8gg	.
.	8aaJ	.
=51	=51	=51
4.B- 4.d 4.g)	8ggL	.
.	8ddd	.
.	8ggJ	.
(<4.A 4.c 4.a	8ff#L	.
.	8gg	.
.	8aaJ	.
=52	=52	=52
8B- 8d 8gL)	8gg)	f
8B-' 8b-'	8r	.
8A' 8a'J	8r	.
8G' 8g'L	4r	.
8F' 8f'	.	.
8E-' 8e-'J	8r	.
=53	=53	=53
8D' 8d'L	2.r	.
8C' 8c'	.	.
8BB-' 8B-'J	.	.
8AA-' 8A-'L	.	.
8GG' 8G'	.	.
8FF' 8F'J	.	.
=54	=54	=54
4.EE-^ 4.E-^	8r	.
.	(8bb-L	mf
.	8ee-J	.
4.EE- 4.E-	8dd-LM	.
.	8cc	.
.	8dd-J	.
!!LO:LB:g=z
=55	=55	=55
4.En 4.B- 4.c	8ccL)	.
.	(8bb-	.
.	8aa-J)	.
.	(8bb-q	.
4.E 4.B- 4.c	(8aa-L)	.
.	8gg	.
.	8ffJ)	.
=56	=56	=56
.	(8ffq	.
4.E 4.B- 4.c	(8eenL)	.
.	8dd-	.
.	8ccJ)	.
.	(8ee-q	.
(<4.E 4.B- 4.c	()8dd-L	.
.	8cc	.
.	8b-J	.
=57	=57	=57
4.F 4.c)	8aL)	.
.	(8ccc	p
.	8ffJ	.
(<4.F 4.c	8ee-LM	.
.	8dd	.
.	8ee-J	.
=58	=58	=58
4.F# 4.c 4.d)	8ddL)	.
.	(8ccc	.
.	8bb-J)	.
.	(8cccq	.
4.F# 4.c 4.d	()8bb-L	.
.	8aa	.
.	8ggJ)	.
!!LO:LB:g=z
=59	=59	=59
.	(8aaq	.
4.F# 4.c 4.d	(8ggL)	.
.	8ff#	.
.	8ee-J)	.
.	(8ffnq	.
(<4.F# 4.c 4.d	(8ee-L)	.
.	8dd	.
.	8ccJ	.
=60	=60	=60
4.G 4.d)	8bL)	.
.	(8ccc	mf
.	8ggJ	.
(<4.G 4.d	8ffLM	.
.	8ee	.
.	8ffJ	.
=61	=61	=61
4.G# 4.d 4.e)	8eeL)	.
.	(8ddd	.
.	8cccJ)	.
.	(8dddq	.
4.G# 4.d 4.e	(8cccL)	.
.	8bb	.
.	8aaJ)	.
=62	=62	=62
.	(8bbq	.
4.G# 4.d 4.e	(8aaL)	.
.	8gg#	.
.	8ffJ)	.
.	(8ggnq	.
4.G# 4.d 4.e	(8ffL)	.
.	8ee	.
.	8ddJ	.
!!LO:LB:g=z
=63||	=63||	=63||
*k[f#c#g#]	*k[f#c#g#]	*k[f#c#g#]
(8AL	8cc#L	>
8B	8dd	.
8c#J	8eeJ)	.
.	(16eeqq	]
*ped	*	*
8D'L)	4ff#)	p
(8d	.	.
8f#J)	([8gg#	mf
=64	=64	=64
*ped	*	*
8C#'L	8gg#L]	.
(8c#	8aa	.
8eJ)	8eeJ	.
*ped	*	*
8BB'L	8ddLM	.
(8B	8cc#	.
8dJ)	8ddJ	.
=65	=65	=65
*ped	*	*
8AA'L	8cc#L	.
(8A	8dd	.
8c#J)	8eeJ)	.
.	(16eeqq	.
*ped	*	*
8D'L	4ff#)	.
(8d	.	.
8f#J)	([8gg#	p
=66	=66	=66
*ped	*	*
8C#'L	8gg#L]	.
(8c#	8aa	.
8eJ)	8eeJ	.
*ped	*	*
8BB'L	8ddLM	.
(8B	8cc#	.
8dJ)	8ddJ	.
=67	=67	=67
*ped	*	*
4.AA^	4.cc#)m	.
8A'L	([4.ccc#	f
(8a	.	.
8cc#J)	.	.
!!LO:LB:g=z
=68	=68	=68
*ped	*	*
8G#'L	8ccc#L]	.
(8g#	8bb	p
8bJ)	[8gg#J	.
*ped	*	*
8F#'L	8gg#L]	.
(8f#	8aa	.
8aJ)	[8ff#J	.
=69	=69	=69
*ped	*	*
8E'L	8ff#L]	<
(8e	8bb	.
8g#J)	[8gg#J	.
*ped	*	*
8D'L	8gg#L]	.
*clefG2	*	*
(8g#	8bb	.
8bJ)	[8gg#J	.
*clefF4	*	*
=70	=70	=70
*ped	*	*
8C#'L	8gg#L]	.
*clefG2	*	*
(8a	8ccc#	.
8cc#J)	[8aaJ	.
*clefF4	*	*
*ped	*	*
8BB'L>	8aaL]	.
*clefG2	*	*
(8b	8ddd	.
8ddJ)	[8bbJ	.
*clefF4	*	*
=71	=71	=71
*Xped	*	*
(4.AA	8bbL]	f
.	8ccc#	.
.	[8gg#J	.
4.A	8gg#L]	.
.	8aa	.
.	8eeJ	.
!!LO:LB:g=z
=72	=72	=72
4.D	8ee#L	.
.	8ff#	.
.	[8cc#J	.
4.d	8cc#L]	.
.	8dd	.
.	[8bJ	.
=73	=73	=73
4.e)	8bL]	.
.	8ee	.
.	8aJ	.
(4.E	8bLM	.
.	8a	.
.	8g#J)	.
=74	=74	=74
.	(16g#qq	.
8AAL	4.a)	>
8C#	.	.
8EJ	.	.
*ped	*	*
8A'L)	([4.ccc#	] f
(8a	.	.
8cc#J)	.	.
=75	=75	=75
*ped	*	*
8G#'L	8ccc#L]	.
(8g#	8bb	p
8bJ)	[8gg#J	.
*ped	*	*
8F#'L	8gg#L]	.
(8f#	8aa	.
8aJ)	[8ff#J	.
!!LO:LB:g=z
=76	=76	=76
*ped	*	*
8E'L	8ff#L]	<
(8e'	8bb	.
8g#J)	[8gg#J	.
*ped	*	*
8D'L	8gg#L]	.
*clefG2	*	*
(8g#	8bb	.
8bJ)	[8gg#J	.
*clefF4	*	*
=77	=77	=77
*ped	*	*
8C#'L	8gg#L]	.
*clefG2	*	*
(8a	8ccc#	.
8cc#J)	[8aaJ	.
*clefF4	*	*
*ped	*	*
8BB'L>	8aaL]	.
*clefG2	*	*
(8b	8ddd	.
8ddJ)	[8bbJ	.
*clefF4	*	*
=78	=78	=78
*Xped	*	*
(<4.AA	8bbL]	f
.	8ccc#	.
.	[8gg#J	.
4.A	8gg#L]	.
.	8aa	.
.	8eeJ	.
=79	=79	=79
4.D	8ee#L	.
.	8ff#	.
.	[8cc#J	.
4.d	8cc#L]	.
.	8dd	.
.	[8bJ	.
=80	=80	=80
4.E	8bL]	.
.	8ee	.
.	8aJ	.
4.EE	8bLM	.
.	8a	.
.	8g#J)	.
!!LO:LB:g=z
=81	=81	=81
4.AA)	8r	.
.	(8aaL	.
.	8eeJ	.
(4.C#	8cc#L	.
.	8a	.
.	8eJ	.
=82	=82	=82
4.DD 4.D	8BL)	.
.	(8d 8f#	.
.	8c# 8eJ	.
4.EE 4.E	8B 8dL	.
.	8A 8c#	.
.	8G# 8BJ	.
=83	=83	=83
4.AA)	8A)	.
.	(8eeL	.
.	8cc#J	.
(4.CC# 4.C#	8aL	.
.	8e	.
.	8c#J	.
=84	=84	=84
4.DD 4.D	8BL)	.
.	(8d 8f#	.
.	8c# 8eJ	.
4.EE 4.E	8B 8dL	.
.	8A 8c#	.
.	8G# 8BJ	.
=85	=85	=85
4.AA)	4.A)M<	.
4r	4r	.
8r	8r	.
==:|!	==:|!	==:|!
*-	*-	*-
!!!RDF**kern: > = above
!!!RDF**kern: < = below
!!!RDF**kern: + = marked note, optional, color=silver
!!!verovio: beamFrenchStyle 1
!!!URL-vhv: https://verovio.humdrum.org/?file=scarlatti/sonatas/L307K269.krn
!!!URL-pdf: https://github.com/craigsapp/scarlatti-keyboard-sonatas/blob/master/reference-edition/L307K269.pdf
!!!URL-youtube: https://www.youtube.com/watch?v=p_887UNCRkQ Duanduan Hao, piano
!!!URL-youtube: https://www.youtube.com/watch?v=kbEhxyi5Wr8 Scott Ross, harpsichord
!!!PTL: Domenico Scarlatti: Opere complete per clavicembalo
!!!PED: Longo, Alessandro
!!!PPR: Ricordi
!!!PPP: Milan
!!!PDT: 1906-1913
!!!YEC: 2021 Craig Stuart Sapp
!!!YEM: Licence: (CC BY-NC-SA 4.0) https://creativecommons.org/licenses/by-nc-sa/4.0
!!!ENC: Craig Stuart Sapp
!!!END: 2004/11/08
!!!EED: Craig Stuart Sapp
!!!EEV: 2021/06/16
